icons/bookmark-24.svg

<svg xmlns="http://www.w3.org/2000/svg" width="24" height="24" viewBox="0 0 24 24"><path d="M5 3.75C5 2.784 5.784 2 6.75 2h10.5c.966 0 1.75.784 1.75 1.75v17.5a.75.75 0 01-1.218.586L12 17.21l-5.781 4.625A.75.75 0 015 21.25zm1.75-.25a.25.25 0 00-.25.25v15.94l5.031-4.026a.749.749 0 01.938 0L17.5 19.69V3.75a.25.25 0 00-.25-.25z"/></svg>

<svg xmlns="http://www.w3.org/2000/svg" width="24" height="24" viewBox="0 0 24 24">
  <defs/>
  <path d="M5,3.75 C5,2.784 5.784,2 6.75,2 L17.25,2 C18.216,2 19,2.784 19,3.75 L19,21.25 C19,21.538 18.835,21.801 18.575,21.926 C18.315,22.051 18.007,22.016 17.782,21.836 L12,17.21 L6.219,21.835 C5.994,22.015 5.685,22.051 5.426,21.926 C5.166,21.801 5,21.538 5,21.25 Z M6.75,3.5 C6.612,3.5 6.5,3.612 6.5,3.75 L6.5,19.69 L11.531,15.664 C11.805,15.444 12.195,15.444 12.469,15.664 L17.5,19.69 L17.5,3.75 C17.5,3.612 17.388,3.5 17.25,3.5 Z"/>
</svg>
